Adwaita++/mimetypes/16/text-x-tex.svg

<svg height="16" width="16" xmlns="http://www.w3.org/2000/svg">
  <path d="m9.8182656 4.0067655v.2776237h.1850804c.492799 0 .662629.063761.832872.3146397l1.647226 2.4986046-1.480653 2.165458c-.125444.1791996-.390616.5922675-1.2955793.5922675v.277617l.9994453-.03699c.331518 0 .824946.0101 1.147507.03699v-.277617c-.412159-.0089-.573751-.2644139-.573751-.4256939 0-.08064.02986-.105028.09254-.2035865l1.277067-1.8878359 1.406617 2.1469464c.01794.03579.05553.06566.05553.09254 0 .107521-.206984.268666-.592262.2776269v.277618c.3136-.02689.9736-.03699 1.314085-.03699l1.166013.03699v-.277617h-.166573c-.465919 0-.663217-.05539-.851378-.3331569l-1.887839-2.8502576 1.221543-1.7952934c.197122-.2867247.516638-.5833037 1.31408-.5922619v-.2776217l-.99944.037013c-.358403 0-.789109-.010123-1.147507-.037013v.2776237c.358398.00896.555239.2011033.555239.407177 0 .089602-.01131.1235441-.07402.2221028l-1.036468 1.4991648-1.147507-1.7212676c-.01794-.02689-.05552-.093713-.05552-.1295553 0-.107521.188472-.2686635.573755-.2776217v-.2776237c-.313603.02689-.973609.037013-1.314089.037013zm-9.6516916 0-.166574 2.0173922h.222098c.125439-1.4425547.257251-1.7397685 1.610214-1.7397685.16128 0 .391616.000474.481213.018506.188156.035812.203586.1270674.203586.3331411v4.8228353c0 .304638-.003.4629334-.943915.4441954h-.370165v.277623c.36736-.02689 1.290598-.03704 1.702756-.03704.412159 0 1.335392.0101 1.702751.03704v-.277623h-.370164c-.940799 0-.925409-.1395574-.925409-.4441954v-4.8228298c0-.1791971-.01322-.2973007.148067-.3331421.09856-.017929.347989-.018506.518226-.018506 1.352963 0 1.484775.2972148 1.610214 1.7397695h.222103l-.166579-2.0173931zm4.806364 2.3597971v.2776171h.222098c.689916 0 .703316.084621.703316.4071826v4.7453317c0 .322556-.01337.425689-.703316.425689h-.222098v.277617h5.163783l.388676-2.313525h-.240604c-.224002 1.379838-.4207538 2.035908-1.9618723 2.035908h-1.1845247c-.42112 0-.444195-.07449-.444195-.37017v-2.4096759h.795848c.8691207 0 .9809335.293364.9809335 1.0549639h.2221028v-2.3875556h-.2221028c0 .7705618-.1118128 1.0549693-.9809335 1.0549693h-.795848v-2.1690769c0-.2956763.02312-.3516581.444195-.3516581h1.147507c1.3708808 0 1.6149179.4758254 1.758281 1.7212626h.222098l-.259116-1.9988797z" fill="#474747"/>
</svg>

<svg xmlns="http://www.w3.org/2000/svg" width="16" height="16" version="1.1">
 <path style="fill:#474747" d="m 9.8182656,4.0067655 v 0.2776237 h 0.1850804 c 0.492799,0 0.662629,0.063761 0.832872,0.3146397 l 1.647226,2.4986046 -1.480653,2.165458 C 10.877347,9.4422911 10.612175,9.855359 9.7072117,9.855359 v 0.277617 l 0.9994453,-0.03699 c 0.331518,0 0.824946,0.0101 1.147507,0.03699 V 9.855359 c -0.412159,-0.0089 -0.573751,-0.2644139 -0.573751,-0.4256939 0,-0.08064 0.02986,-0.105028 0.09254,-0.2035865 l 1.277067,-1.8878359 1.406617,2.1469464 c 0.01794,0.03579 0.05553,0.06566 0.05553,0.09254 0,0.107521 -0.206984,0.268666 -0.592262,0.2776269 v 0.277618 c 0.3136,-0.02689 0.9736,-0.03699 1.314085,-0.03699 l 1.166013,0.03699 V 9.855357 H 15.83343 c -0.465919,0 -0.663217,-0.05539 -0.851378,-0.3331569 L 13.094213,6.6719425 14.315756,4.8766491 c 0.197122,-0.2867247 0.516638,-0.5833037 1.31408,-0.5922619 V 4.0067655 l -0.99944,0.037013 c -0.358403,0 -0.789109,-0.010123 -1.147507,-0.037013 v 0.2776237 c 0.358398,0.00896 0.555239,0.2011033 0.555239,0.407177 0,0.089602 -0.01131,0.1235441 -0.07402,0.2221028 L 12.92764,6.4128338 11.780133,4.6915662 c -0.01794,-0.02689 -0.05552,-0.093713 -0.05552,-0.1295553 0,-0.107521 0.188472,-0.2686635 0.573755,-0.2776217 V 4.0067655 c -0.313603,0.02689 -0.973609,0.037013 -1.314089,0.037013 z m -9.6516916,0 L 0,6.0241577 H 0.222098 C 0.347537,4.581603 0.479349,4.2843892 1.832312,4.2843892 c 0.16128,0 0.391616,4.74e-4 0.481213,0.018506 0.188156,0.035812 0.203586,0.1270674 0.203586,0.3331411 v 4.8228353 c 0,0.304638 -0.003,0.4629334 -0.943915,0.4441954 H 1.203031 v 0.277623 c 0.36736,-0.02689 1.290598,-0.03704 1.702756,-0.03704 0.412159,0 1.335392,0.0101 1.702751,0.03704 V 9.903067 H 4.238374 c -0.940799,0 -0.925409,-0.1395574 -0.925409,-0.4441954 V 4.6360418 c 0,-0.1791971 -0.01322,-0.2973007 0.148067,-0.3331421 0.09856,-0.017929 0.347989,-0.018506 0.518226,-0.018506 1.352963,0 1.484775,0.2972148 1.610214,1.7397695 H 5.811575 L 5.644996,4.0067701 Z m 4.806364,2.3597971 v 0.2776171 h 0.222098 c 0.689916,0 0.703316,0.084621 0.703316,0.4071826 v 4.7453317 c 0,0.322556 -0.01337,0.425689 -0.703316,0.425689 H 4.972938 V 12.5 h 5.163783 l 0.388676,-2.313525 h -0.240604 c -0.224002,1.379838 -0.4207538,2.035908 -1.9618723,2.035908 H 7.138396 c -0.42112,0 -0.444195,-0.07449 -0.444195,-0.37017 V 9.4425371 h 0.795848 c 0.8691207,0 0.9809335,0.293364 0.9809335,1.0549639 H 8.6930853 V 8.1099454 H 8.4709825 c 0,0.7705618 -0.1118128,1.0549693 -0.9809335,1.0549693 H 6.694201 V 6.9958378 c 0,-0.2956763 0.02312,-0.3516581 0.444195,-0.3516581 h 1.147507 c 1.3708808,0 1.6149179,0.4758254 1.758281,1.7212626 h 0.222098 L 10.007166,6.3665626 Z"/>
</svg>
